!!!COM: Bach, Johann Sebastian
!!!OPR: Joh. Seb. Bachs vierstimmige Choralges‰nge
!!!XEN: Four-part Chorales
!!!OTL: 11. Alles ist an Gottes Segen
!!!SCT: BWV 263
!!!SCA: Thematisch-systematisches Verzeichnis der musikalischen Werke Johann Sebastian Bach: Bach-Werke-Verzeichnis (Schmieder)
!!!YOR: Bach Gesellschaft Edition xxxix
!!!ENC: Steven Rasmussen
!!!CDT: 1685/3//-1750/7/28/
!!!OCY: Deutschland
!!!YEC: Copyright (c) 1994, 2000 Center for Computer Assisted Research in the Humanities
!!!YEM: Rights to all derivative editions reserved
!!!YEN: United States of America
**kern	**kern	**kern	**kern	**silbe
*I:[BASSO]	*I:[TENORE]	*I:[ALTO]	*I:[SOPRANO]	*I:[SOPRANO]
*clefF4	*clefGv2	*clefG2	*clefG2	*
*k[f#]	*k[f#]	*k[f#]	*k[f#]	*
*G:	*G:	*G:	*G:	*
*M4/4	*M4/4	*M4/4	*M4/4	*
=1-	=1-	=1-	=1-	=1-
4G 4GG	4B	4d	4g	Al-
4G	4B	4d	4g	-les
4F#	4A	(8d	4dd	ist
.	.	4a)	.	.
4G	4B	.	4dd	an
.	.	8g	.	.
=2	=2	=2	=2	=2
4G	4e	4a	4cc	Got-
8F#L	4d	8aL	4dd	-tes
8DJ	.	8f#J	.	.
4G	4d	4g	4b	Se-
4GG;	4B;	4d;	4g;	-gen
=3	=3	=3	=3	=3
8GGL	4d	4g	4b	und
8AAJ	.	.	.	.
8BBL	4d	4g	4b	an
8CJ	.	.	.	.
8DL	4d	4g	4a	sei-
8EJ	.	.	.	.
8F#L	4d	4f#	4a	-ner
8DJ	.	.	.	.
=4	=4	=4	=4	=4
8BBL	8dL	8f#L	4g	Gnad'
8EJ	8BJ	16eL	.	.
.	.	16dJJ	.	.
8C#L	4A	8eL	4a	ge-
8AAJ	.	8c#J	.	.
4D	4A	4d	4f#	-le-
4DD;	4F#;	4A;	4d;	-gen
=5	=5	=5	=5	=5
8DL	8F#L	4d	4a	√º-
8EJ	8GJ	.	.	.
8F#L	8AL	4d	4a	-ber
8DJ	8F#J	.	.	.
4G	4G	4d	8bL	al-
.	.	.	8aJ	.
4D	4A	4d	8gL	-les
.	.	.	8f#J	.
=6	=6	=6	=6	=6
4A	4.A	8dL	4.e	Geld
.	.	8BJ	.	.
4AA	.	4c#	.	.
.	16GLL	.	8d	und
.	16F#JJ	.	.	.
2D;	2F#;	2A;	2d;	Gut.
=7	=7	=7	=7	=7
(8D	4f#	4a	4dd	Wer
4d)	.	.	.	.
.	4f#	4a	4dd	auf
8c	.	.	.	.
8BL	4fn	8g#L	4dd	Gott
8AJ	.	8aJ	.	.
8G#L	4e	4b	4ee	sein'
8EJ	.	.	.	.
=8	=8	=8	=8	=8
8AL	4e	8bL	4cc	Hoff-
8GJ	.	16aL	.	.
.	.	16gJJ	.	.
8F#L	4d	4a	4dd	-nung
8DJ	.	.	.	.
4G	4d	4g	4b	se-
4GG;	4B;	4d;	4g;	-tzet,
=9	=9	=9	=9	=9
4G	8dL	4g	4b	der
.	8BJ	.	.	.
4G	8eL	8gL	4b	be-
.	8dJ	8f#J	.	.
4G	8c#L	8eL	4a	-h√§lt
.	8AJ	8c#J	.	.
8F#L	4d	4f#	4a	ganz
8DJ	.	.	.	.
=10	=10	=10	=10	=10
8BBL	8dL	8f#L	4g	un-
8EJ	8BJ	16eL	.	.
.	.	16dJJ	.	.
8C#L	4A	8eL	4a	-ver-
8AAJ	.	8c#J	.	.
4D	4A	4d	4f#	-le-
4DD;	4F#;	4A;	4d;	-tzet
=11	=11	=11	=11	=11
8BBL	4G	8dL	4g	ei-
8EJ	.	8BJ	.	.
8DL	4d	4f#	4a	-nen
8CJ	.	.	.	.
8BBL	8dL	8gL	8bL	frei-
8AAJ	8cJ	8f#J	8ccJ	.
8GGL	8BL	4g	8ddL	-en
8EJ	8cJ	.	8ccJ	.
=12	=12	=12	=12	=12
4D	4d	4g	4b	Hel-
4DD	8.dL	4f#	8aL	-den-
.	.	.	8gJ	.
.	16cJk	.	.	.
2GG;	2B;	2d;	2g;	-mut.
==|!	==|!	==|!	==|!	==|!
*-	*-	*-	*-	*-
!!!RWG: Key is interpreted using the Humdrum key tool.
!!!URL-pdf: https://s9.imslp.org/files/imglnks/usimg/6/6b/IMSLP24489-PMLP09471-CCARH_Bach_Chorales.pdf#page=6 Musedata edition
!!!URL-pdf: https://s9.imslp.org/files/imglnks/usimg/7/7a/IMSLP04155-Bach_-_BGA_253-438.pdf#page=7 	Bach-Gesellschaft Ausgabe, Band 39 (pp.175-276) Leipzig: Breitkopf und H‰rtel, 1892. Plate B.W. XXXIX.
!!!END: 1994/05/06
!!!EMD: Converted from MuseData to Humdrum Dec 19, 2000, by Andreas Kornstaedt using muse2kern.
!!!EED: Craig Stuart Sapp
!!!EEV: 2024/03/31
!!!ONB: Some non-unicode characters
!!!filter-keyboard: satb2gs
